X:1
T:CICERENELLA
T:CICERENELLA
T:Tarantella
T:Pietro Labriola
T:Cicerenella teneva na gatta ch'era cecata e purzí scontraffatta... La strascenava cu meza codella... Chest'è la gatta de Cicerenella... Cicerenella teneva nu gallo e tutta la notte nce jéva a cavallo... Essa nce jéva po' senza la sella... E chisto è lo gallo de Cicerenella... Cicerenella teneva nu ciuccio e ll'avéa fatto nu bellu cappuccio... Ma nu teneva né ossa e né pelle... Chisto è lu ciuccio de Cicerenella... Cicerenella tenéa na gallina che facéa ll'uovo de sera e matina... Ll'avéa 'mparata a magná farenella... Chest'è 'a gallina de Cicerenella...
T:Cicerenella tenéa na pennata, e, tutta la notte, steva allummata... E ll'allummava co la lucernella... Chesta è 'a pennata de Cicerenella... Cicerenella teneva na vótte: mettea da coppa e asceva da sotto... E nun ce steva tompagno e cannella... Chesta è la vótte de Cicerenella... Cicerenella tenéa na remessa e nce metteva cavallo e calesse... E nce metteva la soja tommonella... Chesta è 'a remessa de Cicerenella... Cicerenella tenéa na tièlla, frijeva ll'ove cu la mozzarella... e le ffrijeva cu la sarcenella... Chesta è 'a tièlla de Cicerenella... Cicerenella mia, si' bona e bella 
T:IMSLP - Pubblico dominio
T:IMSLP - Pubblico dominio
C:Pietro Labriola
Z:IMSLP - Pubblico dominio
%%score 1 { 2 | 3 }
L:1/8
Q:1/4=180
M:6/8
K:C
V:1 treble nm="Canto"
V:2 treble nm="Pianoforte"
V:3 bass 
V:1
"^Tempo di tarantella" e e e | !>!f (f f g g g) | e2 e !>!c2 c | B B B !>!^G G G | A2 A (e e e) | %5
w: Ci\- ce\- re\-|nel\- la te\- nea no ciar\-|di\- no e~l'a\- da\-|cqua\- va coll' ac\- qua~e lo|vi\- no; Ci- ce- re-|
 !>!f (f f g g g) | e2 e !>!c2 c | B B B ^G G G | A2 A A A B |!<(! c c c d d d!<)! | %10
w: nel- la te- nea no ciar-|di- no e~l'a\- da-|cqua- va coll' ac- qua e~lo|vi\- no; ma l'a\- da\-|cqua\- va po sen\- za l'an\-|
 !>!c2 (c c c c) | !>!B (B B B B B) | A2 A A A B | !>!c (c c d d d) | c2 c c c c | %15
w: gel\- la, chi\- sto ciar\-|di\- no~è de Ci\- ce\- re\-|nel\- la; ma l'a- da-|cqua- va po sen- za l'an-|cel- la, chi- sto ciar\-|
 !>!B (B B B B B) | A2 A z z e | !>!f2 f !>!g2 g | ee z z z c | !>!B2 B ^G3 | A2 z z2 z | z6 | z6 | %23
w: di- no~è de Ci- ce- re-|nel- la; Ci\-|ce\- re\- nel\- la|mi\- a si|bo\- na~e bel\-|la!|||
 z6 | z6 | z6 | z6 | z6 | z2 z!D.C.! |] %29
w: ||||||
V:2
 z E[Ac] | z F[Ad] z F[Bd] | z F[Gd] z E[Ac] | z D[FB] z D[E^G] | z C[EA] z C[Ac] | %5
 z F[Ad] z F[Bd] | z E[Gc] z E[Ac] | z D[FB] z D[E^G] | z C[EA] z C[Ac] | z F[Ac] z F[Ad] | %10
 z E[Ac] z E[Ac] | z D[^FB] z E[GB] | z C[EA] z C[Ac] | z F[Ac] z F[Ad] | z E[Ac] z E[Ac] | %15
 z E[^Gc] z E[Ac] | z C[EA] z C[Ac] | z F[Ad] z G[Ad] | z E[Gc] z E[Gc] | z D[^FB] z E[GB] | %20
 z !>!C[EA] z !>!E[Ac] | z !>!F[Ad] z !>!F[Ad] | z !>!E[Ac] z !>!E[Ac] | z D[^GB] z D[GB] | %24
 z !>!C[EA] z !>!E[Ac] | z !>!F[Ad] z !>!F[Ad] | z !>!E[Ac] z !>!E[Ac] | z D[^GB] z D[GB] | %28
 [CEA]2 z |] %29
V:3
 A,2 z | D,2 z G,2 z | C,2 z A,,2 z | D,2 z E,2 z | A,,2 z G,2 z | D,2 z G,2 z | C,2 z A,,2 z | %7
 D,2 z E,2 z | A,,2 z G,2 z | D,2 z G,2 z | C,2 z A,,2 z | D,2 z E,2 z | A,,2 z A,2 z | %13
 F,2 z D,2 z | E,2 z E,2 z | E,,2 z E,,2 z | A,,2 z A,2 z | D,2 z G,2 z | C,2 z C2 z | %19
 E,,2 z E,2 z | [A,,A,]2 z E,2 z | F,2 z D,2 z | C,2 z E,2 z | E,,2 z E,2 z | [A,,A,]2 z E,2 z | %25
 F,2 z D,2 z | C,2 z E,2 z | E,,2 z E,2 z | [A,,A,]2 z |] %29

